;FLAVOR:Marlin
;TIME:1675
;Filament used: 2.89537m
;Layer height: 0.2
;MINX:91
;MINY:91
;MINZ:0.3
;MAXX:129
;MAXY:129
;MAXZ:19.9
;Generated with Cura_SteamEngine 4.6.2
M140 S70
M105
M190 S70
M104 S210
M105
M109 S210
M82 ;absolute extrusion mode
G28 ;Home
;Prime the extruder
G92 E0 ; reset extruder
G1 Z1.0 F3000 ; move z up little to prevent scratching of surface
G1 X200.0 Y0.2 Z0.3 F5000.0 ; move to start-line position
G1 X100.0 Y0.2 Z0.3 F1500.0 E10 ; draw 1st line
G1 X100.0 Y0.6 Z0.3 F5000.0 ; move to side a little
G1 X200.0 Y0.6 Z0.3 F1500.0 E20 ; draw 2nd line
G92 E0 ; reset extruder
G1 Z1.0 F3000 ; move z up little to prevent scratching of surface
G92 E0
G92 E0
G1 F2400 E-6
;LAYER_COUNT:99
;LAYER:0
M107
G1 F600 Z0.7
G0 F3600 X120.632 Y91.842 Z0.7
;TYPE:SKIRT
G1 F600 Z0.3
G1 F2400 E0
G1 X121.265 Y91.913 E0.03178
G1 X121.946 Y92.046 E0.0664
G1 X122.918 Y92.353 E0.11725
G1 X123.42 Y92.563 E0.1444
G1 X123.943 Y92.826 E0.1736
G1 X124.487 Y93.155 E0.20532
G1 X125.058 Y93.562 E0.24031
G1 X125.65 Y94.074 E0.27935
G1 X126.09 Y94.53 E0.31097
G1 X126.606 Y95.168 E0.3519
G1 X126.975 Y95.717 E0.38491
G1 X127.247 Y96.194 E0.4123
G1 X127.483 Y96.68 E0.43926
G1 X127.725 Y97.294 E0.47218
G1 X127.958 Y98.086 E0.51337
G1 X128.085 Y98.729 E0.54607
G1 X128.151 Y99.238 E0.57167
G1 X128.198 Y100.859 E0.65258
G1 X128.2 Y119.258 E1.57051
G1 X128.193 Y119.823 E1.5987
G1 X128.158 Y120.63 E1.639
G1 X128.087 Y121.266 E1.67093
G1 X127.955 Y121.94 E1.70519
G1 X127.784 Y122.535 E1.73608
G1 X127.536 Y123.2 E1.77149
G1 X127.176 Y123.939 E1.8125
G1 X126.848 Y124.481 E1.8441
G1 X126.437 Y125.06 E1.87953
G1 X125.929 Y125.647 E1.91826
G1 X125.471 Y126.089 E1.95001
G1 X124.829 Y126.609 E1.99123
G1 X124.28 Y126.977 E2.02421
G1 X123.806 Y127.247 E2.05142
G1 X123.306 Y127.489 E2.07913
G1 X122.703 Y127.726 E2.11146
G1 X121.914 Y127.958 E2.15249
G1 X121.268 Y128.086 E2.18534
G1 X120.452 Y128.169 E2.22626
G1 X119.141 Y128.198 E2.29169
G1 X100.709 Y128.2 E3.21126
G1 X100.163 Y128.193 E3.2385
G1 X99.367 Y128.158 E3.27826
G1 X98.734 Y128.087 E3.31003
G1 X98.054 Y127.954 E3.3446
G1 X97.082 Y127.647 E3.39546
G1 X96.58 Y127.437 E3.4226
G1 X96.054 Y127.171 E3.45201
G1 X95.511 Y126.843 E3.48366
G1 X94.941 Y126.438 E3.51855
G1 X94.34 Y125.917 E3.55823
G1 X93.88 Y125.438 E3.59136
G1 X93.378 Y124.812 E3.63139
G1 X93.016 Y124.268 E3.66399
G1 X92.756 Y123.813 E3.69014
G1 X92.504 Y123.289 E3.71915
G1 X92.271 Y122.696 E3.75093
G1 X92.039 Y121.904 E3.79211
G1 X91.913 Y121.265 E3.8246
G1 X91.831 Y120.456 E3.86517
G1 X91.802 Y119.141 E3.93079
G1 X91.8 Y100.709 E4.85037
G1 X91.807 Y100.163 E4.87761
G1 X91.842 Y99.367 E4.91736
G1 X91.913 Y98.734 E4.94914
G1 X92.047 Y98.05 E4.98391
G1 X92.357 Y97.07 E5.03519
G1 X92.559 Y96.587 E5.06131
G1 X92.831 Y96.049 E5.09139
G1 X93.158 Y95.509 E5.12288
G1 X93.571 Y94.93 E5.15836
G1 X94.069 Y94.355 E5.19632
G1 X94.53 Y93.909 E5.22832
G1 X95.171 Y93.391 E5.26943
G1 X95.72 Y93.023 E5.30241
G1 X96.194 Y92.753 E5.32962
G1 X96.693 Y92.512 E5.35727
G1 X97.297 Y92.274 E5.38966
G1 X98.086 Y92.042 E5.43069
G1 X98.732 Y91.914 E5.46354
G1 X99.548 Y91.831 E5.50446
G1 X100.859 Y91.802 E5.56989
G1 X119.291 Y91.8 E6.48946
G1 X119.838 Y91.807 E6.51675
G1 X120.632 Y91.842 E6.5564
G0 F3600 X120.651 Y91.443
G1 F2400 X121.316 Y91.516 E6.58978
G1 X122.029 Y91.655 E6.62602
G1 X123.046 Y91.974 E6.6792
G1 X123.585 Y92.199 E6.70834
G1 X124.125 Y92.47 E6.73848
G1 X124.575 Y92.736 E6.76456
G1 X125.075 Y93.075 E6.7947
G1 X125.485 Y93.394 E6.82062
G1 X125.917 Y93.776 E6.84939
G1 X126.395 Y94.271 E6.88372
G1 X126.938 Y94.945 E6.9269
G1 X127.307 Y95.494 E6.9599
G1 X127.601 Y96.007 E6.9894
G1 X127.844 Y96.507 E7.01713
G1 X128.037 Y96.977 E7.04248
G1 X128.244 Y97.597 E7.07509
G1 X128.478 Y98.651 E7.12896
G1 X128.549 Y99.199 E7.15652
G1 X128.576 Y99.704 E7.18175
G1 X128.598 Y100.851 E7.23899
G1 X128.6 Y119.258 E8.15732
G1 X128.593 Y119.828 E8.18576
G1 X128.557 Y120.648 E8.22671
G1 X128.484 Y121.317 E8.26028
G1 X128.346 Y122.023 E8.29617
G1 X128.213 Y122.508 E8.32126
G1 X128.013 Y123.087 E8.35182
G1 X127.805 Y123.577 E8.37838
G1 X127.532 Y124.121 E8.40875
G1 X127.274 Y124.56 E8.43415
G1 X126.923 Y125.077 E8.46533
G1 X126.608 Y125.482 E8.49092
G1 X126.226 Y125.914 E8.51969
G1 X125.731 Y126.394 E8.55409
G1 X125.051 Y126.941 E8.59763
G1 X124.502 Y127.309 E8.63061
G1 X123.993 Y127.601 E8.65988
G1 X123.478 Y127.85 E8.68842
G1 X123.003 Y128.044 E8.71402
G1 X122.399 Y128.245 E8.74578
G1 X121.346 Y128.478 E8.79958
G1 X120.481 Y128.568 E8.84297
G1 X119.149 Y128.598 E8.90944
G1 X100.709 Y128.6 E9.82942
G1 X100.158 Y128.593 E9.85691
G1 X99.349 Y128.557 E9.89731
G1 X98.683 Y128.484 E9.93074
G1 X97.971 Y128.345 E9.96693
G1 X96.954 Y128.026 E10.0201
G1 X96.415 Y127.801 E10.04924
G1 X95.871 Y127.527 E10.07963
G1 X95.436 Y127.272 E10.10479
G1 X94.924 Y126.925 E10.13565
G1 X94.513 Y126.605 E10.16163
G1 X94.073 Y126.214 E10.191
G1 X93.708 Y125.845 E10.21689
G1 X93.294 Y125.365 E10.24852
G1 X92.683 Y124.489 E10.3018
G1 X92.403 Y124 E10.32992
G1 X92.142 Y123.461 E10.35979
G1 X91.89 Y122.818 E10.39425
G1 X91.647 Y121.981 E10.43773
G1 X91.521 Y121.342 E10.47022
G1 X91.432 Y120.484 E10.51326
G1 X91.402 Y119.149 E10.57988
G1 X91.4 Y100.709 E11.49986
G1 X91.407 Y100.158 E11.52735
G1 X91.443 Y99.349 E11.56775
G1 X91.516 Y98.683 E11.60117
G1 X91.656 Y97.967 E11.63757
G1 X91.979 Y96.941 E11.69124
G1 X92.195 Y96.422 E11.71928
G1 X92.475 Y95.866 E11.75034
G1 X92.733 Y95.428 E11.7757
G1 X93.08 Y94.917 E11.80652
G1 X93.405 Y94.502 E11.83281
G1 X93.771 Y94.088 E11.86038
G1 X94.13 Y93.731 E11.88564
G1 X94.62 Y93.307 E11.91797
G1 X95.498 Y92.691 E11.97148
G1 X96.007 Y92.399 E12.00076
G1 X96.52 Y92.151 E12.02918
G1 X96.994 Y91.957 E12.05473
G1 X97.601 Y91.755 E12.08665
G1 X98.654 Y91.522 E12.14046
G1 X99.519 Y91.432 E12.18384
G1 X100.851 Y91.402 E12.25031
G1 X119.291 Y91.4 E13.17029
G1 X119.843 Y91.407 E13.19783
G1 X120.651 Y91.443 E13.23818
G0 F3600 X120.669 Y91.043
G1 F2400 X121.366 Y91.119 E13.27316
G1 X122.113 Y91.264 E13.31113
G1 X123.175 Y91.595 E13.36662
G1 X123.751 Y91.834 E13.39774
G1 X124.307 Y92.114 E13.42879
G1 X124.786 Y92.396 E13.45652
G1 X125.302 Y92.745 E13.4876
G1 X125.738 Y93.084 E13.51516
G1 X126.184 Y93.478 E13.54485
G1 X126.558 Y93.855 E13.57134
G1 X126.996 Y94.361 E13.60473
G1 X127.639 Y95.271 E13.66032
G1 X127.955 Y95.82 E13.69192
G1 X128.204 Y96.335 E13.72046
G1 X128.41 Y96.833 E13.74735
G1 X128.624 Y97.473 E13.78102
G1 X128.87 Y98.574 E13.8373
G1 X128.947 Y99.16 E13.86679
G1 X128.976 Y99.696 E13.89357
G1 X128.998 Y100.843 E13.9508
G1 X129 Y119.258 E14.86953
G1 X128.993 Y119.834 E14.89827
G1 X128.957 Y120.666 E14.93982
G1 X128.881 Y121.368 E14.97504
G1 X128.738 Y122.107 E15.0126
G1 X128.596 Y122.624 E15.03934
G1 X128.39 Y123.22 E15.0708
G1 X128.17 Y123.742 E15.09907
G1 X127.888 Y124.303 E15.13039
G1 X127.614 Y124.771 E15.15745
G1 X127.253 Y125.304 E15.18956
G1 X126.918 Y125.735 E15.2168
G1 X126.524 Y126.181 E15.24649
G1 X126.156 Y126.549 E15.27245
G1 X125.64 Y126.997 E15.30654
G1 X124.725 Y127.642 E15.3624
G1 X124.18 Y127.955 E15.39375
G1 X123.65 Y128.211 E15.42312
G1 X123.145 Y128.418 E15.45035
G1 X122.522 Y128.625 E15.4831
G1 X121.423 Y128.871 E15.53928
G1 X120.509 Y128.967 E15.58513
G1 X119.157 Y128.998 E15.6526
G1 X100.709 Y129 E16.57298
G1 X100.152 Y128.993 E16.60077
G1 X99.33 Y128.957 E16.64182
G1 X98.632 Y128.881 E16.67685
G1 X97.887 Y128.736 E16.71471
G1 X96.825 Y128.405 E16.77021
G1 X96.249 Y128.166 E16.80132
G1 X95.689 Y127.883 E16.83263
G1 X95.226 Y127.612 E16.85939
G1 X94.697 Y127.254 E16.89126
G1 X94.26 Y126.914 E16.91888
G1 X93.805 Y126.511 E16.94921
G1 X93.417 Y126.12 E16.97669
G1 X92.989 Y125.623 E17.00941
G1 X92.35 Y124.711 E17.06497
G1 X92.05 Y124.188 E17.09505
G1 X91.781 Y123.633 E17.12582
G1 X91.582 Y123.148 E17.15197
G1 X91.37 Y122.508 E17.18561
G1 X91.129 Y121.42 E17.2412
G1 X91.033 Y120.513 E17.28671
G1 X91.002 Y119.157 E17.35438
G1 X91 Y100.709 E18.27475
G1 X91.007 Y100.152 E18.30254
G1 X91.043 Y99.33 E18.34359
G1 X91.119 Y98.632 E18.37862
G1 X91.265 Y97.884 E18.41664
G1 X91.6 Y96.812 E18.47267
G1 X91.83 Y96.258 E18.5026
G1 X92.119 Y95.684 E18.53466
G1 X92.393 Y95.217 E18.56168
G1 X92.751 Y94.689 E18.5935
G1 X93.096 Y94.248 E18.62144
G1 X93.472 Y93.822 E18.64978
G1 X93.855 Y93.441 E18.67674
G1 X94.361 Y93.003 E18.71012
G1 X95.275 Y92.358 E18.76594
G1 X95.82 Y92.045 E18.79729
G1 X96.348 Y91.79 E18.82654
G1 X96.851 Y91.583 E18.85368
G1 X97.478 Y91.375 E18.88664
G1 X98.577 Y91.129 E18.94282
G1 X99.491 Y91.033 E18.98867
G1 X100.843 Y91.002 E19.05614
G1 X119.291 Y91 E19.97652
G1 X119.849 Y91.007 E20.00436
G1 X120.669 Y91.043 E20.04531
G1 F2400 E14.04531
;MESH:Cube.STL
G0 F3600 X120.673 Y94.378
G0 X120.604 Y95.459
G0 X121.029 Y96.135
;TYPE:WALL-INNER
G1 F2400 E20.04531
G1 X121.521 Y96.303 E20.07125
G1 X122.001 Y96.54 E20.09795
G1 X122.428 Y96.826 E20.12359
G1 X122.827 Y97.174 E20.15001
G1 X123.171 Y97.566 E20.17603
G1 X123.458 Y97.997 E20.20186
G1 X123.692 Y98.47 E20.22819
G1 X123.863 Y98.974 E20.25474
G1 X123.963 Y99.471 E20.28003
G1 X123.999 Y100.032 E20.30808
G1 X124 Y119.968 E21.30269
G1 X123.965 Y120.526 E21.33058
G1 X123.865 Y121.029 E21.35617
G1 X123.697 Y121.521 E21.38211
G1 X123.46 Y122.001 E21.40881
G1 X123.174 Y122.428 E21.43445
G1 X122.826 Y122.827 E21.46087
G1 X122.434 Y123.171 E21.48689
G1 X122.003 Y123.458 E21.51272
G1 X121.53 Y123.692 E21.53905
G1 X121.026 Y123.863 E21.5656
G1 X120.529 Y123.963 E21.59089
G1 X119.968 Y123.999 E21.61894
G1 X100.032 Y124 E22.61355
G1 X99.474 Y123.965 E22.64145
G1 X98.971 Y123.865 E22.66703
G1 X98.479 Y123.697 E22.69297
G1 X97.999 Y123.46 E22.71968
G1 X97.572 Y123.174 E22.74532
G1 X97.173 Y122.826 E22.77173
G1 X96.829 Y122.434 E22.79775
G1 X96.542 Y122.003 E22.82358
G1 X96.308 Y121.53 E22.84991
G1 X96.137 Y121.026 E22.87646
G1 X96.037 Y120.529 E22.90176
G1 X96.001 Y119.968 E22.9298
G1 X96 Y100.032 E23.92441
G1 X96.035 Y99.474 E23.95231
G1 X96.135 Y98.971 E23.97789
G1 X96.303 Y98.479 E24.00383
G1 X96.54 Y97.999 E24.03054
G1 X96.826 Y97.572 E24.05618
G1 X97.174 Y97.173 E24.08259
G1 X97.566 Y96.829 E24.10861
G1 X97.998 Y96.541 E24.13451
G1 X98.47 Y96.308 E24.16077
G1 X98.974 Y96.137 E24.18733
G1 X99.471 Y96.037 E24.21262
G1 X100.032 Y96.001 E24.24067
G1 X119.968 Y96 E25.23528
G1 X120.526 Y96.035 E25.26317
G1 X121.029 Y96.135 E25.28876
G0 F3600 X121.131 Y95.748
G1 F2400 X121.681 Y95.936 E25.31775
G1 X122.2 Y96.192 E25.34663
G1 X122.675 Y96.51 E25.37514
G1 X123.11 Y96.889 E25.40393
G1 X123.489 Y97.321 E25.4326
G1 X123.806 Y97.797 E25.46113
G1 X124.063 Y98.317 E25.49007
G1 X124.249 Y98.865 E25.51894
G1 X124.36 Y99.42 E25.54718
G1 X124.399 Y100.021 E25.57723
G1 X124.4 Y119.977 E26.57283
G1 X124.362 Y120.577 E26.60283
G1 X124.252 Y121.131 E26.63101
G1 X124.064 Y121.681 E26.66001
G1 X123.808 Y122.2 E26.68888
G1 X123.49 Y122.675 E26.7174
G1 X123.111 Y123.11 E26.74618
G1 X122.679 Y123.489 E26.77485
G1 X122.203 Y123.806 E26.80338
G1 X121.683 Y124.063 E26.83232
G1 X121.135 Y124.249 E26.86119
G1 X120.58 Y124.36 E26.88943
G1 X119.979 Y124.399 E26.91948
G1 X100.023 Y124.4 E27.91509
G1 X99.423 Y124.362 E27.94508
G1 X98.869 Y124.252 E27.97326
G1 X98.319 Y124.064 E28.00226
G1 X97.8 Y123.808 E28.03113
G1 X97.325 Y123.49 E28.05965
G1 X96.89 Y123.111 E28.08843
G1 X96.511 Y122.679 E28.1171
G1 X96.194 Y122.203 E28.14563
G1 X95.937 Y121.683 E28.17457
G1 X95.751 Y121.135 E28.20344
G1 X95.64 Y120.58 E28.23168
G1 X95.601 Y119.979 E28.26173
G1 X95.6 Y100.023 E29.25734
G1 X95.638 Y99.423 E29.28733
G1 X95.748 Y98.869 E29.31551
G1 X95.936 Y98.319 E29.34451
G1 X96.192 Y97.8 E29.37338
G1 X96.51 Y97.325 E29.4019
G1 X96.889 Y96.89 E29.43068
G1 X97.321 Y96.511 E29.45935
G1 X97.798 Y96.193 E29.48796
G1 X98.317 Y95.937 E29.51683
G1 X98.865 Y95.751 E29.5457
G1 X99.42 Y95.64 E29.57394
G1 X100.021 Y95.601 E29.60398
G1 X119.977 Y95.6 E30.59959
G1 X120.577 Y95.638 E30.62959
G1 X121.131 Y95.748 E30.65776
G0 F3600 X121.24 Y95.362
;TYPE:WALL-OUTER
G1 F2400 X121.834 Y95.565 E30.68908
G1 X122.4 Y95.845 E30.72059
G1 X122.92 Y96.192 E30.75178
G1 X123.393 Y96.604 E30.78307
G1 X123.807 Y97.076 E30.81439
G1 X124.154 Y97.597 E30.84562
G1 X124.434 Y98.164 E30.87717
G1 X124.635 Y98.756 E30.90836
G1 X124.757 Y99.369 E30.93955
G1 X124.799 Y100.01 E30.97159
G1 X124.8 Y119.987 E31.96825
G1 X124.759 Y120.628 E32.0003
G1 X124.638 Y121.24 E32.03142
G1 X124.435 Y121.834 E32.06274
G1 X124.155 Y122.4 E32.09424
G1 X123.808 Y122.92 E32.12543
G1 X123.396 Y123.393 E32.15672
G1 X122.924 Y123.807 E32.18805
G1 X122.403 Y124.154 E32.21928
G1 X121.836 Y124.434 E32.25083
G1 X121.244 Y124.635 E32.28202
G1 X120.631 Y124.757 E32.3132
G1 X119.99 Y124.799 E32.34525
G1 X100.013 Y124.8 E33.34191
G1 X99.372 Y124.759 E33.37395
G1 X98.76 Y124.638 E33.40507
G1 X98.166 Y124.435 E33.43639
G1 X97.6 Y124.155 E33.4679
G1 X97.08 Y123.808 E33.49908
G1 X96.607 Y123.396 E33.53038
G1 X96.193 Y122.924 E33.5617
G1 X95.846 Y122.403 E33.59293
G1 X95.566 Y121.836 E33.62448
G1 X95.365 Y121.244 E33.65567
G1 X95.243 Y120.631 E33.68685
G1 X95.201 Y119.99 E33.7189
G1 X95.2 Y100.013 E34.71556
G1 X95.241 Y99.372 E34.7476
G1 X95.362 Y98.76 E34.77873
G1 X95.565 Y98.166 E34.81005
G1 X95.845 Y97.6 E34.84155
G1 X96.192 Y97.08 E34.87274
G1 X96.604 Y96.607 E34.90403
G1 X97.076 Y96.193 E34.93536
G1 X97.597 Y95.846 E34.96659
G1 X98.164 Y95.566 E34.99814
G1 X98.756 Y95.365 E35.02933
G1 X99.369 Y95.243 E35.06051
G1 X100.01 Y95.201 E35.09256
G1 X119.987 Y95.2 E36.08921
G1 X120.628 Y95.241 E36.12126
G1 X121.24 Y95.362 E36.15238
G0 F3600 X121.429 Y95.426
G0 X121.332 Y95.709
G0 X120.922 Y96.51
;TYPE:SKIN
G1 F2400 X121.376 Y96.666 E36.17633
G1 X121.802 Y96.876 E36.20003
G1 X122.191 Y97.137 E36.2234
G1 X122.552 Y97.451 E36.24727
G1 X122.863 Y97.805 E36.27078
G1 X123.12 Y98.192 E36.29396
G1 X123.329 Y98.614 E36.31745
G1 X123.486 Y99.075 E36.34175
G1 X123.575 Y99.514 E36.36409
G1 X123.609 Y100.057 E36.39124
G1 X123.61 Y119.943 E37.38335
G1 X123.576 Y120.485 E37.41045
G1 X123.49 Y120.922 E37.43267
G1 X123.334 Y121.376 E37.45662
G1 X123.124 Y121.802 E37.48031
G1 X122.863 Y122.191 E37.50368
G1 X122.549 Y122.552 E37.52755
G1 X122.195 Y122.863 E37.55106
G1 X121.809 Y123.12 E37.5742
G1 X121.381 Y123.331 E37.598
G1 X120.925 Y123.486 E37.62203
G1 X120.486 Y123.575 E37.64438
G1 X119.943 Y123.609 E37.67152
G1 X100.057 Y123.61 E38.66364
G1 X99.515 Y123.576 E38.69073
G1 X99.078 Y123.49 E38.71295
G1 X98.624 Y123.334 E38.7369
G1 X98.198 Y123.124 E38.7606
G1 X97.809 Y122.863 E38.78397
G1 X97.448 Y122.549 E38.80784
G1 X97.137 Y122.195 E38.83135
G1 X96.88 Y121.809 E38.85448
G1 X96.669 Y121.381 E38.87829
G1 X96.514 Y120.925 E38.90232
G1 X96.425 Y120.486 E38.92467
G1 X96.391 Y119.943 E38.95181
G1 X96.39 Y100.057 E39.94393
G1 X96.424 Y99.515 E39.97102
G1 X96.51 Y99.078 E39.99324
G1 X96.666 Y98.624 E40.01719
G1 X96.876 Y98.198 E40.04089
G1 X97.137 Y97.809 E40.06426
G1 X97.451 Y97.448 E40.08813
G1 X97.806 Y97.137 E40.11167
G1 X98.193 Y96.879 E40.13488
G1 X98.619 Y96.669 E40.15857
G1 X99.075 Y96.514 E40.1826
G1 X99.514 Y96.425 E40.20495
G1 X100.057 Y96.391 E40.23209
G1 X119.943 Y96.39 E41.22421
G1 X120.485 Y96.424 E41.2513
G1 X120.922 Y96.51 E41.27352
G0 F3600 X120.976 Y96.237
G0 X121.916 Y96.688
G0 X122.703 Y97.292
G0 X123.195 Y97.933
G0 X123.677 Y98.769
G0 X123.242 Y98.917
G1 F2400 X121.079 Y96.754 E41.42613
G0 F3600 X120.355 Y96.596
G1 F2400 X123.402 Y99.644 E41.64115
G0 F3600 X123.429 Y100.235
G1 F2400 X119.764 Y96.57 E41.89974
G0 F3600 X119.198 Y96.57
G1 F2400 X123.429 Y100.801 E42.19826
G0 F3600 X123.429 Y101.367
G1 F2400 X118.632 Y96.57 E42.53671
G0 F3600 X118.067 Y96.57
